icons/outline/topology-complex.svg

<!--
tags: [hierarchy, network, structure, connection]
category: Computers
unicode: "f5da"
version: "1.112"
-->
<svg
  xmlns="http://www.w3.org/2000/svg"
  width="24"
  height="24"
  viewBox="0 0 24 24"
  fill="none"
  stroke="currentColor"
  stroke-width="2"
  stroke-linecap="round"
  stroke-linejoin="round"
>
  <path d="M20 18a2 2 0 1 0 -4 0a2 2 0 0 0 4 0zm-12 0a2 2 0 1 0 -4 0a2 2 0 0 0 4 0zm0 -12a2 2 0 1 0 -4 0a2 2 0 0 0 4 0zm12 0a2 2 0 1 0 -4 0a2 2 0 0 0 4 0zm-6 6a2 2 0 1 0 -4 0a2 2 0 0 0 4 0zm-6.5 -4.5l3 3m-4.5 -2.5v8m12 0v-8m-10 -2h8m0 12h-8" />
</svg>

<!--
tags: [hierarchy, network, structure, connection]
category: Computers
unicode: "f5da"
version: "1.112"
-->
<svg
  xmlns="http://www.w3.org/2000/svg"
  width="24"
  height="24"
  viewBox="0 0 24 24"
  fill="none"
  stroke="currentColor"
  stroke-width="2"
  stroke-linecap="round"
  stroke-linejoin="round"
>
    <path d="M20 18a2 2 0 1 0 -4 0a2 2 0 0 0 4 0zM8 18a2 2 0 1 0 -4 0a2 2 0 0 0 4 0zM8 6a2 2 0 1 0 -4 0a2 2 0 0 0 4 0zM20 6a2 2 0 1 0 -4 0a2 2 0 0 0 4 0zM14 12a2 2 0 1 0 -4 0a2 2 0 0 0 4 0zM7.5 7.5l3 3M6 8v8M18 16v-8M8 6h8M16 18h-8" />
</svg>
